!!!OTL: 531b. Abgelehnte Theilnahme.
!!!ARE: Europa, Mitteleuropa, Deutschland, Thueringen
!!!SCT: E0531A
!!!TXL: @@DE
!!!YEM: Copyright 1995, estate of Helmut Schaffrath.
**kern	**text
*ICvox	*
*M4/4	*
*met(c)	*
*k[f#c#g#d#]	*
*E:	*
!LO:TX:a:t=Etwas langsam.	!
!LO:TX:a:t=Thüringer Melodie.	!
{8eL	Wie
8g#J	.
=1	=1
4.b	kommts,
8g#	daß
4a	du
4f#	ſo
=2	=2
8g#L	trau-
8f#J	.
8g#L	-rig
8aJ	.
4g#}	biſt
{8eL	und
8g#J	.
=3	=3
4.b/	gar
8g#	nicht
4a	ein-
4f#	-mal
=4	=4
2g#	lachſt?
4r}	.
{8eL	Wie
8g#J	.
=5	=5
4.b	kommts,
8g#	daß
4a	du
4f#	ſo
=6	=6
8g#L	trau-
8f#J	.
8g#L	-rig
8aJ	.
4g#}	biſt
{8eL	und
8g#J	.
=7	=7
4.b/	gar
8g#	nicht
4a	ein-
4f#	-mal
=8	=8
2g#	lachſt?
4r}	.
{8bL	Jch
8eeJ	.
=9	=9
4.dd#	ſeh
8a	dirs
4a	an
4cc#	den
=10	=10
8bL	Au-
8aJ	.
8g#L	-gen
8aJ	.
4b}	an,
{4cc#	daß
=11	=11
4.b	du
8g#	ge-
4e	-wei-
4f#	-net
=12	=12
2g#}	haſt,
{2cc#	daß
=13	=13
4.b	du
8e	ge-
4g#	-wei-
4f#	-net
=14	=14
2e	haſt.
4r}	.
{8bL	Jch
8eeJ	.
=15	=15
4.dd#	ſeh
8a	dirs
4a	an
4cc#	den
=16	=16
8bL	Au-
8aJ	.
8g#L	-gen
8aJ	.
4b}	an,
{4cc#	daß
=17	=17
4.b	du
8g#	ge-
4e	-wei-
4f#	-net
=18	=18
2g#}	haſt,
{2cc#	daß
=19	=19
4.b	du
8e	ge-
4g#	-wei-
4f#	-net
=20	=20
2e	haſt.
4r}	.
==	==
!!!AGN: Liebes - Lied
!!!ONB: ESAC (Essen Associative Code) Database: ERK1
!!!AMT: simple quadruple
!!!AIN: vox
!!!EED: Helmut Schaffrath
!!!EEV: 1.0
!!!GTL: Liebeslieder [Neuere (aus dem 18. bis 19. Jahrh.) - Liebeslust]
!!!URL-scan: https://rosdok.uni-rostock.de/mcrviewer/recordIdentifier/rosdok_ppn745177662/iview2/phys_0362.iview2?x=-128.77276441889308&y=798.3524245861918&scale=0.5870222003877485&rotation=0&layout=singlePageLayout
!!!ENC: Anna Maria Matuszewska
!!!EEV: 2024/10/12
*-	*-
